!!!COM: L van Beethoven
!!!OTL: String Quartet
**kern	**dynam	**kern	**dynam	**kern	**dynam	**kern	**dynam	**mxhm
*part4	*part4	*part3	*part3	*part2	*part2	*part1	*part1	*part1
*staff4	*	*staff3	*	*staff2	*	*staff1	*	*
*I"Violoncello	*	*I"Viola	*	*I"Violin II	*	*I"Violin I	*	*
*I'Vc.	*	*I'Vla.	*	*I'Vln. II	*	*I'Vln. I	*	*
*clefF4	*	*clefC3	*	*clefG2	*	*clefG2	*	*
*k[b-]	*	*k[b-]	*	*k[b-]	*	*k[b-]	*	*
*M2/4	*	*M2/4	*	*M2/4	*	*M2/4	*	*
!	!	!	!	!	!	!LO:TX:a:B:t=Allegretto con Variazioni	!	!
*MM100	*	*MM100	*	*MM100	*	*MM100	*	*
!	!	!	!	!	!	!LO:TX:a:t=[quarter]=100	!	!
[4F	p	[4A	p p	[4c [4f	.	(8.ccL	p	.Eb.I
.	.	.	.	.	.	16b-Jk	.	.
=1	=1	=1	=1	=1	=1	=1	=1	=1
8F]	.	8A]	.	8c] 8f]	.	8a')	.	I
8r	.	8r	.	8r	.	8r	.	.
[4BB-	.	[4B-	.	[4d [4f	.	(8.ffL	.	IV
.	.	.	.	.	.	16eeJk	.	.
=2	=2	=2	=2	=2	=2	=2	=2	=2
8BB-]	.	8B-]	.	8d] 8f]	.	8dd')	.	.
8r	.	8r	.	8r	.	8r	.	.
[4G	.	[4d	.	[4b-	.	(8.ddL	.	ii
.	.	.	.	.	.	16ccJk	.	.
=3	=3	=3	=3	=3	=3	=3	=3	=3
8G]	.	8d]	.	8b-]	.	8b-')	.	.
8r	.	8r	.	8r	.	8r	.	.
[4E	.	[4G	.	4c	.	(8.b-L	.	V65
.	.	.	.	.	.	16aJk	.	.
=4	=4	=4	=4	=4	=4	=4	=4	=4
8E]	.	8G]	.	8c	.	8g')	.	V6
8r	.	8r	.	8r	.	8r	.	.
!	!	!LO:TX:b:i:t=cresc.	!	!	!	!	!	!
!LO:TX:b:i:t=cresc.	!	!LO:TX:a:i:t=cresc.	!	!	!	!LO:TX:b:i:t=cresc.	!	!
[4C	.	[4G	.	[4e	.	8.b-L	.	V7
.	.	.	.	.	.	16aJk	.	.
=5	=5	=5	=5	=5	=5	=5	=5	=5
8C]	.	8G]	.	8e]	.	8g'	.	V
8r	.	8r	.	8r	.	8r	.	.
[4A	.	[4c	.	[4f	.	8.ccL	.	I6
.	.	.	.	.	.	16b-Jk	.	.
=6	=6	=6	=6	=6	=6	=6	=6	=6
8A]	.	8c]	.	8f]	.	8a'	.	.
8r	.	8r	.	8r	.	8r	.	.
8.FL	f f	8.AL	.	8.aL	f	8.ccL	f	I
16EJk	.	16aJk	.	16gJk	.	16cc#Jk	.	#viio6/vi
=7	=7	=7	=7	=7	=7	=7	=7	=7
8D'L	.	8a'L	.	8f'L	.	8dd'L	.	vi.i
8C'J	.	8A'J	.	8e'J	.	8ee'J	.	v6
8BB-'L	.	8d'L	.	8d'L	.	8ff'L	.	VI
8BB-'J	.	8dd'J	.	8d'J	.	8gg'J	.	iv6
=	=	=	=	=	=	=	=	=
8AA	.	8cc#	.	8A 8a	.	8aa	.	V\\
8r	.	8r	.	8r	.	8r	.	.
=8:|!|:	=8:|!|:	=8:|!|:	=8:|!|:	=8:|!|:	=8:|!|:	=8:|!|:	=8:|!|:	=8:|!|:
(4A	pp	(4a	pp	(4cc#	pp	(8.aaL	pp	I.V7/vi
.	.	.	.	.	.	16ggJk	.	.
=9	=9	=9	=9	=9	=9	=9	=9	=9
4d	.	4d	.	4ccX	.	4ff#	.	V7/ii
4G	.	4g	.	4b	.	8.ggL	.	V7/V
.	.	.	.	.	.	16ffXJk	.	.
=10	=10	=10	=10	=10	=10	=10	=10	=10
(4c)	.	4c	.	4b-X	.	4ee	.	V7
[4F)	.	4f	.	4a	.	8.ffL	.	I
.	.	.	.	.	.	16eeJk	.	.
=11	=11	=11	=11	=11	=11	=11	=11	=11
(4F]	.	4A	.	4a	.	(4dd#X)	.	.Ger6/iii
[4E)	.	4e	.	[4g#X)	.	[4ee)	.	V/iii
=12	=12	=12	=12	=12	=12	=12	=12	=12
4E]	.	4b)	.	4g#]	.	4ee]	.	.
!	!	!LO:TX:b:i:t=cresc.	!	!	!	!	!	!
!LO:TX:b:i:t=cresc.	!	!LO:TX:a:i:t=cresc.	!	!	!	!LO:TX:b:i:t=cresc.	!	!
(8.GL	.	(8.b-XL	.	(8.cL 8.g	.	(8.eeL	.	V43
16AJk	.	16aJk	.	16fJk	.	16ddJk	.	vi64
=13	=13	=13	=13	=13	=13	=13	=13	=13
8B-')	.	8g')	.	8c') 8e	.	8cc')	.	V2
8r	.	8r	.	8r	.	8r	.	.
(8.GL	.	(8.cL	.	(8.gL	.	(8.eeL	.	V64
16FJk	.	16cJk	.	16aJk	.	16ffJk	.	I
=14	=14	=14	=14	=14	=14	=14	=14	=14
8E')	.	8c')	.	8b-')	.	8gg')	.	V65
8r	.	8r	.	8r	.	8r	.	.
(8.eL	.	(8.gL	.	(8.eeL	.	(8.ggL	.	V6
16fJk	.	16aJk	.	16ddJk	.	16ffJk	.	I
=15	=15	=15	=15	=15	=15	=15	=15	=15
8g')	.	8b-')	.	8cc')	.	8ee')	.	V43
8r	.	8r	.	8r	.	8r	.	.
(8.eL	.	(8.gL	.	(8.eeL	.	(8.ggL	.	V6
16dJk	.	16fJk	.	16ffJk	.	16aaJk	.	vi
=16	=16	=16	=16	=16	=16	=16	=16	=16
8c')	.	8e')	.	8gg')	.	8bb-')	.	V7
8r	.	8r	.	8r	.	8r	.	.
!	!LO:DY:a	!	!	!	!	!	!	!
(8.DL	f f	(8.fL	.	(8.ccL	f	(8.cccL	f	vi7
16EJk	.	16gJk	.	16b-Jk	.	16bb-Jk	.	V65
=17	=17	=17	=17	=17	=17	=17	=17	=17
8F')	.	8c')	.	8a')	.	8aa')	.	I
8r	.	8r	.	8r	.	8r	.	.
(8.GGL	sf	(8.B-L	sf	(8.ffL	sf	(8.fffL	sf	ii7
16AAJk	.	16cJk	.	16eeJk	.	16eeeJk	.	iii
=18	=18	=18	=18	=18	=18	=18	=18	=18
8BB-')	.	8F')	.	8dd')	.	8ddd')	.	IV
8r	.	8r	.	8r	.	8r	.	.
!	!LO:DY:a	!	!LO:DY:a	!	!	!	!	!
(8.EEL	sf sf	(8.GL	sf	(8.ddL	.	(8.dddL	sf	vii%7
16FF#Jk)	.	16AJk)	.	16ccJk)	.	16cccJk)	.	#viio/ii
=19	=19	=19	=19	=19	=19	=19	=19	=19
8GG'L	.	8B-'L	.	8b-'L	.	8bb-'L	.	ii
8AA'	.	8A'	.	8cc'	.	8ccc'	.	I6
8BB-'	.	8G'	.	8dd'	.	8ddd'	.	ii6
8C'J	.	8B-'J	.	8g'J 8ee	.	8eee'J	.	V7
=	=	=	=	=	=	=	=	=
8FFX	.	8A	.	8a 8ff	.	8fff	.	I\\
8r	.	8r	.	8r	.	8r	.	.
=20:|!|:	=20:|!|:	=20:|!|:	=20:|!|:	=20:|!|:	=20:|!|:	=20:|!|:	=20:|!|:	=20:|!|:
!LO:TX:b:i:t=sempre f e staccato	!	!	!	!	!	!	!	!
8c'L	.	4r	.	4r	.	4r	.	I
8A'J	.	.	.	.	.	.	.	.
=21	=21	=21	=21	=21	=21	=21	=21	=21
!	!	!LO:TX:b:i:t=sempre f e staccato	!	!	!	!	!	!
8F'L	.	8A'L	.	2r	.	4r	.	.
8C'	.	8c'	.	.	.	.	.	.
!	!	!	!	!	!	!LO:TX:b:i:t=sempre f e staccato	!	!
8AA'	.	8f'	.	.	.	8fff'L	.	.
8FF'J	.	8a'J	.	.	.	8ccc'J	.	.
=22	=22	=22	=22	=22	=22	=22	=22	=22
!	!	!LO:TX:a:i:t=sempre f e staccato	!	!	!	!	!	!
8BB-	.	8d	.	8d'L	.	8ddd'L	.	IV
8r	.	8r	.	8f'	.	8bb-'	.	.
8d'L	.	4r	.	8b-'	.	8ff'	.	.
8c'J	.	.	.	8dd'J	.	8dd'J	.	.
=23	=23	=23	=23	=23	=23	=23	=23	=23
8B-'L	.	8G'L	.	2r	.	8d'	.	ii
8A'	.	8A'	.	.	.	8r	.	.
8G'	.	8B-'	.	.	.	8bb-'L	.	.
8F'J	.	8B'J	.	.	.	8aa'J	.	.
=24	=24	=24	=24	=24	=24	=24	=24	=24
8E	.	8G	.	8c'L	.	8gg'L	.	V6
8r	.	8r	.	8d'	.	8ff'	.	.
8g'L	.	4r	.	8e'	.	8ee'	.	.
8f'J	.	.	.	8f'J	.	8dd'J	.	.
=25	=25	=25	=25	=25	=25	=25	=25	=25
8e'L	.	8e'L	.	8g	.	4cc'	.	.
8d'	.	8f'	.	8r	.	.	.	.
8c'	.	8g'	.	4r	.	8eee'L	.	.
8B-'J	.	8g#X'J	.	.	.	8ddd'J	.	#viio6/iii
=26	=26	=26	=26	=26	=26	=26	=26	=26
8A'L	.	8a'L	.	8c'L	.	8ccc'L	.	iii
8G'	.	8b-'	.	8g'	.	8bb-'J	.	.
8F'	.	8cc'	.	8a'	.	8aa'L	.	.
8E'J	.	8g'J	.	8a'J	.	8ccc#'J	.	V43/vi
=27	=27	=27	=27	=27	=27	=27	=27	=27
8D'L	.	8f'L	.	8a'L	.	8ddd'L	.	vi.i
8C'	.	8d'	.	8ff'	.	8ddd'	.	.
8BB'	.	8d'	.	8dd'	.	8fff'	.	IV6
8BB-X'J	.	8d'J	.	8dd'J	.	8gg#X'J	.	.Ger6
=	=	=	=	=	=	=	=	=
8AA	.	8e	.	8cc#'	.	8aa'	.	V\\
8r	.	8r	.	8r	.	8r	.	.
=28:|!|:	=28:|!|:	=28:|!|:	=28:|!|:	=28:|!|:	=28:|!|:	=28:|!|:	=28:|!|:	=28:|!|:
8a'L	.	4r	.	8a'L	.	4r	.	I.V2/vi
8g'J	.	.	.	8cc#'J	.	.	.	.
=29	=29	=29	=29	=29	=29	=29	=29	=29
8f#'L	.	8d'L	.	4r	.	8ddd'L	.	V65/ii
8d'	.	8f#'J	.	.	.	8cccX'	.	.
8g'	.	4r	.	8g'L	.	8bb'	.	V2/V
8fX'J	.	.	.	8b'J	.	8gg'J	.	.
=30	=30	=30	=30	=30	=30	=30	=30	=30
8e'L	.	8c'L	.	4r	.	8ccc'L	.	V65
8c'	.	8e'J	.	.	.	8bb-X'	.	.
8f'	.	4r	.	8f'L	.	8aa'	.	I
8e'J	.	.	.	8ccX'J	.	8a'J	.	.
=31	=31	=31	=31	=31	=31	=31	=31	=31
8d#X'L	.	8r	.	8cc'L	.	8aa'L	.	.Ger6/iii
8D#X'	.	8A'L	.	8aa'	.	8ccc'	.	.
8E'	.	8e'	.	8gg#X'	.	8bb'	.	V/iii
!	!LO:DY:a	!	!	!	!	!	!	!
8e'J	sf sf	8E'J	sf	8e'J	.	8ee'J	sf	.
=32	=32	=32	=32	=32	=32	=32	=32	=32
8E'L	.	8E	.	8e	.	8ee	.	.
8e'	.	8r	.	8r	.	8r	.	.
8E'	.	4r	.	4r	.	4r	.	.
8D'J	.	.	.	.	.	.	.	.
=33	=33	=33	=33	=33	=33	=33	=33	=33
8C'L	.	8e'L	.	4r	.	4r	.	V
8D'	.	8d'	.	.	.	.	.	.
8E'	.	8c'	.	8g'L	.	8ee'L	.	V6
8F'J	.	8d'J	.	8f'J	.	8dd'J	.	vi6
=34	=34	=34	=34	=34	=34	=34	=34	=34
8G'	.	8e'	.	8e'L	.	8cc'L	.	V64
8r	.	8r	.	8f'	.	8dd'	.	.
8e'L	.	8g'L	.	8g'	.	8ee'	.	V6
8d'J	.	8f'J	.	8a'J	.	8ff'J	.	vi
=35	=35	=35	=35	=35	=35	=35	=35	=35
8c'L	.	8e'L	.	8b-'	.	8gg'	.	V7
8d'	.	8f'	.	8r	.	8r	.	.
8e'	.	8g'	.	8ee'L	.	8gg'L	.	V6
8f'J	.	8a'J	.	8dd'J	.	8ff'J	.	vi6
=36	=36	=36	=36	=36	=36	=36	=36	=36
8g'	.	8b-'	.	8cc'L	.	8ee'L	.	V43
8r	.	8r	.	8dd'	.	8ff'	.	.
8c'L	.	8cc'L	.	8ee'	.	8gg'	.	V
8B-'J	.	8e'J	.	8cc'J	.	8gg'J	.	V2
=37	=37	=37	=37	=37	=37	=37	=37	=37
8A'L	.	8f'	.	8cc'L	.	8aa'L	.	I6
8F'	.	8r	.	8a'	.	8aa'	.	I
8f'	.	8cc'L	.	8g'	.	8bb-'	.	.
8e-X'J	.	8f'J	.	8a'J	.	8ccc'J	.	V2/IV
=38	=38	=38	=38	=38	=38	=38	=38	=38
8d'L	.	8f'L	.	8b-'L	.	8ddd'L	.	IV6
8c'	.	8f#'	.	8a'	.	8ddd'	.	V2/ii
8B-'	.	8g'	.	8b-'	.	8ddd'	.	ii6
8A'J	.	8a'J	.	8cc'J	.	8ccc'J	.	I6
=39	=39	=39	=39	=39	=39	=39	=39	=39
8G'L	.	8b-'L	.	8cc'L	.	8bb-'L	.	V43
8F'	.	8c'	.	8a'	.	8aa'	.	I
8E'	.	8c'	.	8b-'	.	8gg'	.	V65
8C'J	.	8cc'J	.	8gg'J	.	8eee'J	.	V
=	=	=	=	=	=	=	=	=
8FL	.	8cc'	.	8aa'	.	8fff'	.	I\\
8FFJ	.	8r	.	8r	.	8r	.	.
=40:|!|:	=40:|!|:	=40:|!|:	=40:|!|:	=40:|!|:	=40:|!|:	=40:|!|:	=40:|!|:	=40:|!|:
!	!	!LO:TX:b:i:t=dolce	!	!	!	!	!	!
4r	.	(12cL	.	4r	.	4r	.	V
.	.	12d	.	.	.	.	.	.
.	.	12B-J	.	.	.	.	.	.
=41	=41	=41	=41	=41	=41	=41	=41	=41
!LO:TX:b:i:t=sempre dolce e p	!	!	!	!LO:TX:b:i:t=sempre dolce e p	!	!LO:TX:b:i:t=sempre dolce e p	!	!
2F	.	12AL	.	2a	.	2f 2cc	.	I
.	.	12c	.	.	.	.	.	.
.	.	12B-J	.	.	.	.	.	.
.	.	12AL	.	.	.	.	.	.
.	.	12f	.	.	.	.	.	.
.	.	12eJ)	.	.	.	.	.	.
=42	=42	=42	=42	=42	=42	=42	=42	=42
2B-	.	(12eL	.	2f	.	2dd	.	IV
.	.	12c#	.	.	.	.	.	.
.	.	12dJ	.	.	.	.	.	.
.	.	12dL	.	.	.	.	.	.
.	.	12e	.	.	.	.	.	.
.	.	12cXJ)	.	.	.	.	.	.
=43	=43	=43	=43	=43	=43	=43	=43	=43
2G	.	(12cL	.	2b-	.	2dd	.	ii
.	.	12A	.	.	.	.	.	.
.	.	12B-J	.	.	.	.	.	.
.	.	12B-L	.	.	.	.	.	.
.	.	12c	.	.	.	.	.	.
.	.	12AJ)	.	.	.	.	.	.
=44	=44	=44	=44	=44	=44	=44	=44	=44
2E	.	(12AL	.	2c 2g	.	2cc	.	V65
.	.	12F#	.	.	.	.	.	.
.	.	12GJ	.	.	.	.	.	.
.	.	12B-L	.	.	.	.	.	.
.	.	12c	.	.	.	.	.	.
.	.	12AJ)	.	.	.	.	.	.
=45	=45	=45	=45	=45	=45	=45	=45	=45
2E	.	(12AL	.	2c 2g	.	2cc	.	.
.	.	12F#	.	.	.	.	.	.
.	.	12GJ	.	.	.	.	.	.
.	.	12cL	.	.	.	.	.	.
.	.	12d	.	.	.	.	.	.
.	.	12B-J)	.	.	.	.	.	.
=46	=46	=46	=46	=46	=46	=46	=46	=46
2F	.	(12B-L	.	2c	.	2cc	.	I
.	.	12G#X	.	.	.	.	.	.
.	.	12AJ)	.	.	.	.	.	.
.	.	(12AL	.	.	.	.	.	.
.	.	12a	.	.	.	.	.	.
.	.	12gJ)	.	.	.	.	.	.
=47	=47	=47	=47	=47	=47	=47	=47	=47
2B-	.	(12gL	.	2d	.	2dd	.	ii6-iv6/vi
.	.	12fX	.	.	.	.	.	.
.	.	12eJ	.	.	.	.	.	.
.	.	12eL	.	.	.	.	.	.
.	.	12f	.	.	.	.	.	.
.	.	12dJ)	.	.	.	.	.	.
=	=	=	=	=	=	=	=	=
8A	.	8a	.	8e	.	8cc#	.	V/vi\\
8r	.	8r	.	8r	.	8r	.	.
=48:|!|:	=48:|!|:	=48:|!|:	=48:|!|:	=48:|!|:	=48:|!|:	=48:|!|:	=48:|!|:	=48:|!|:
(4AA	.	(12cc#L	.	4r	.	(12eeL	p	V.V/ii
.	.	12b	.	.	.	12dd	.	.
.	.	12cc#J	.	.	.	12eeJ	.	.
=49	=49	=49	=49	=49	=49	=49	=49	=49
4AA-X	.	4dd)	.	(12fL	p	4ff	.	iio64
.	.	.	.	12g	.	.	.	.
.	.	.	.	12fJ)	.	.	.	.
4GG	.	(12bL	.	(12fL	.	12ddL	.	V7
.	.	12a	.	12g	.	12cc	.	.
.	.	12bJ)	.	12fJ)	.	12ddJ)	.	.
=50	=50	=50	=50	=50	=50	=50	=50	=50
4C)	.	(12ccL	.	(4e	.	(4ee	.	I
.	.	12g	.	.	.	.	.	.
.	.	12b-XJ	.	.	.	.	.	.
[4F	.	12aL	.	[4A)	.	[4aa)	.	IV
.	.	12g	.	.	.	.	.	.
.	.	12fJ)	.	.	.	.	.	.
=51	=51	=51	=51	=51	=51	=51	=51	=51
(4F]	.	(12eL	.	(4A]	.	(8aaL]	.	.Ger6/vi
.	.	12d#X	.	.	.	.	.	.
.	.	.	.	.	.	8dd#XJ	.	.
.	.	12aJ	.	.	.	.	.	.
[4E)	.	12g#XL	.	[4e)	.	[4ee)	.	V/vi
.	.	12b	.	.	.	.	.	.
.	.	12g#J	.	.	.	.	.	.
=52	=52	=52	=52	=52	=52	=52	=52	=52
2E]	.	12eL	.	2e]	.	2ee]	.	V7/vi
.	.	12B	.	.	.	.	.	.
.	.	12G#XJ)	.	.	.	.	.	.
.	.	(12EL	.	.	.	.	.	.
.	.	12e	.	.	.	.	.	.
.	.	12dJ)	.	.	.	.	.	.
=53	=53	=53	=53	=53	=53	=53	=53	=53
2C	.	(12dL	.	2c 2b-X	.	2g 2ee	.	I.V7
.	.	12B	.	.	.	.	.	.
.	.	12cJ	.	.	.	.	.	.
.	.	12eL	.	.	.	.	.	.
.	.	12f	.	.	.	.	.	.
.	.	12f#J	.	.	.	.	.	.
=54	=54	=54	=54	=54	=54	=54	=54	=54
2C	.	12aL	.	2c 2b-	.	2g 2ee	.	.
.	.	12f#	.	.	.	.	.	.
.	.	12gJ)	.	.	.	.	.	.
.	.	(12gL	.	.	.	.	.	.
.	.	12a	.	.	.	.	.	.
.	.	12fXJ)	.	.	.	.	.	.
=55	=55	=55	=55	=55	=55	=55	=55	=55
2C	.	(12fL	.	2B- 2g	.	2ee	.	.
.	.	12d	.	.	.	.	.	.
.	.	12eJ	.	.	.	.	.	.
.	.	12gL	.	.	.	.	.	.
.	.	12g#X	.	.	.	.	.	.
.	.	12aJ)	.	.	.	.	.	.
=56	=56	=56	=56	=56	=56	=56	=56	=56
2C	.	(12ccXL	.	2B- 2g	.	2ee	.	.
.	.	12a	.	.	.	.	.	.
.	.	12b-J	.	.	.	.	.	.
.	.	12ccL	.	.	.	.	.	.
.	.	12dd	.	.	.	.	.	.
.	.	12b-J)	.	.	.	.	.	.
=57	=57	=57	=57	=57	=57	=57	=57	=57
2F	.	(12aL	.	2A 2f	.	(4ff	.	I
.	.	12cc	.	.	.	.	.	.
.	.	12b-J	.	.	.	.	.	.
.	.	12aL	.	.	.	4cc)	.	.
.	.	12ff	.	.	.	.	.	.
.	.	12eeJ)	.	.	.	.	.	.
=58	=58	=58	=58	=58	=58	=58	=58	=58
2BB-	.	(12eeL	.	2d	.	2dd	.	IV
.	.	12cc#	.	.	.	.	.	.
.	.	12ddJ	.	.	.	.	.	.
.	.	12ddL	.	.	.	.	.	.
.	.	12ee	.	.	.	.	.	.
.	.	12ccXJ)	.	.	.	.	.	.
=59	=59	=59	=59	=59	=59	=59	=59	=59
2C	.	(12b-L	.	2c 2g	.	2ee	.	V7
.	.	12cc	.	.	.	.	.	.
.	.	12aJ	.	.	.	.	.	.
.	.	12gL	.	.	.	.	.	.
.	.	12dd	.	.	.	.	.	.
.	.	12ccJ)	.	.	.	.	.	.
=	=	=	=	=	=	=	=	=
8F	.	8f	.	8c 8a	.	8ff	.	I\\
8r	.	8r	.	8r	.	8r	.	.
=60:|!|:	=60:|!|:	=60:|!|:	=60:|!|:	=60:|!|:	=60:|!|:	=60:|!|:	=60:|!|:	=60:|!|:
16ALL	f	8r	f	16ccLL	.	8r	.	I6
16B-	.	.	.	16dd	.	.	.	.
16A	.	8cc	f	16cc	.	8ccc	f	.
16GJJ	.	.	.	16b-JJ	.	.	.	.
=61	=61	=61	=61	=61	=61	=61	=61	=61
16FLL	.	8r	.	16aLL	.	8r	.	I
16G	.	.	.	16b-	.	.	.	.
16A	.	8ff	.	16a	.	8fff	.	.
16B-JJ	.	.	.	16ddJJ	.	.	.	.
16cLL	.	8r	.	16eeLL	.	8r	.	.
16d	.	.	.	16ff	.	.	.	.
16e	.	8f	.	16gg	.	8fff	.	.
16dJJ	.	.	.	16ffJJ	.	.	.	.
=62	=62	=62	=62	=62	=62	=62	=62	=62
16cLL	.	8r	.	16eeLL	.	8r	.	IV
16B-	.	.	.	16dd	.	.	.	.
16A	.	8dd	.	16cc#	.	8ddd	.	.
16B-JJ	.	.	.	16ddJJ	.	.	.	.
16B-LL	.	8r	.	16ddLL	.	8r	.	.
16c	.	.	.	16ee	.	.	.	.
16B-	.	8d	.	16dd	.	8ddd	.	.
16AJJ	.	.	.	16ccXJJ	.	.	.	.
=63	=63	=63	=63	=63	=63	=63	=63	=63
16ALL	.	8r	.	16ccLL	.	8r	.	ii
16G	.	.	.	16b-	.	.	.	.
16F#	.	8b-	.	16a	.	8bb-	.	.
16GJJ	.	.	.	16b-JJ	.	.	.	.
16GLL	.	8r	.	16b-LL	.	8r	.	.
16A	.	.	.	16cc	.	.	.	.
16G	.	8B-	.	16b-	.	8bb-	.	.
16FXJJ	.	.	.	16aJJ	.	.	.	.
=64	=64	=64	=64	=64	=64	=64	=64	=64
16FLL	.	8r	.	16aLL	.	8r	.	V65
16E	.	.	.	16g	.	.	.	.
16D#X	.	8g	.	16f#	.	8gg	.	.
16EJJ	.	.	.	16gJJ	.	.	.	.
16GLL	.	8r	.	16b-LL	.	8r	.	.
16A	.	.	.	16cc	.	.	.	.
16G	.	8g	.	16b-	.	8gg	.	.
16FJJ	.	.	.	16aJJ	.	.	.	.
=65	=65	=65	=65	=65	=65	=65	=65	=65
16FLL	.	8r	.	16aLL	.	8r	.	I
16E	.	.	.	16g	.	.	.	.
16D#X	.	8cc	.	16f#	.	8ccc	.	.
16EJJ	.	.	.	16gJJ	.	.	.	.
16ALL	.	8r	.	16ccLL	.	8r	.	I6
16B-	.	.	.	16dd	.	.	.	.
16A	.	8c	.	16cc	.	8ccc	.	.
16GJJ	.	.	.	16b-JJ	.	.	.	.
=66	=66	=66	=66	=66	=66	=66	=66	=66
16GLL	.	8r	.	16b-LL	.	8r	.	I
16F	.	.	.	16a	.	.	.	.
16E	.	8ff	.	16g#X	.	8fff	.	.
16FJJ	.	.	.	16aJJ	.	.	.	.
16FLL	.	8r	.	16aLL	.	8r	.	.
16A	.	.	.	16cc	.	.	.	.
16d	.	8f	.	16ffX	.	8fff	.	.
16cJJ	.	.	.	16eeJJ	.	.	.	.
=67	=67	=67	=67	=67	=67	=67	=67	=67
16B-LL	.	8r	.	16ddLL	.	8r	.	IV
16A	.	.	.	16cc	.	.	.	.
16G	.	8dd	.	16b-	.	8fff	.	.
16FJJ	.	.	.	16aJJ	.	.	.	.
16ELL	.	8r	.	16gLL	.	8r	.	V65
16D	.	.	.	16f	.	.	.	.
16C	.	8d	.	16e	.	8ggg	.	ii6-iv6/vi
16BB-JJ	.	.	.	16dJJ	.	.	.	.
=	=	=	=	=	=	=	=	=
8AA	.	8r	.	8c#	.	8r	.	V/vi\\
8r	.	8a	.	8r	.	8aaa	.	.
=68:|!|:	=68:|!|:	=68:|!|:	=68:|!|:	=68:|!|:	=68:|!|:	=68:|!|:	=68:|!|:	=68:|!|:
4r	.	4r	.	16aLL	f	4r	.	V7/vi
.	.	.	.	16b-	.	.	.	.
.	.	.	.	16a	.	.	.	.
.	.	.	.	16gJJ	.	.	.	.
=69	=69	=69	=69	=69	=69	=69	=69	=69
16dLL	f	8r	.	16gLL	sf	8r	.	V2/ii
16e	.	.	.	16f#	.	.	.	.
16d	.	8d	.	16e	.	8aa	.	.
16cJJ	.	.	.	16f#JJ	.	.	.	.
16cLL	sf	8r	.	16gLL	.	8r	.	V65/V
16B	.	.	.	16a	.	.	.	.
16A	.	8G 8B	.	16g	.	8ddd	.	.
16BJJ	.	.	.	16fXJJ	.	.	.	.
=70	=70	=70	=70	=70	=70	=70	=70	=70
16cLL	.	8r	.	16fLL	sf	8r	.	V2
16d	.	.	.	16e	.	.	.	.
16c	.	8c	.	16d	.	8ee 8gg	.	.
16B-XJJ	.	.	.	16eJJ	.	.	.	.
16ALL	sf	8r	.	16fLL	.	8r	.	I6
16B-	.	.	.	16g	.	.	.	.
16A	.	8F	.	16f	.	8aa	.	.
16GJJ	.	.	.	16eJJ	.	.	.	.
=71	=71	=71	=71	=71	=71	=71	=71	=71
16FLL	.	8r	.	16d#XLL	.	8r	.	.Ger6/iii
16FF	.	.	.	16a	.	.	.	.
16FF	.	8dd#X	.	16A	.	8ddd#X	.	.
16FFJJ	.	.	.	16aJJ	.	.	.	.
8EE	.	16r	.	8g#X	.	16r	.	V/iii
.	.	16eeLL	.	.	.	16eeeLL	.	.
8r	.	16e	.	8r	.	16ee	.	.
.	.	16eeJJ	.	.	.	16eeeJJ	.	.
=72	=72	=72	=72	=72	=72	=72	=72	=72
16r	.	8e	.	16r	.	8ee	.	.
16eLL	.	.	.	16eeLL	.	.	.	.
16E	.	8r	.	16e	.	8r	.	.
16eJJ	.	.	.	16eeJJ	.	.	.	.
8E	p	4r	.	16eLL	p	4r	.	.
.	.	.	.	16f	.	.	.	.
8r	.	.	.	16e	.	.	.	.
.	.	.	.	16dJJ	.	.	.	.
=73	=73	=73	=73	=73	=73	=73	=73	=73
2r	.	4r	.	16dLL	.	4r	.	.
.	.	.	.	16c	.	.	.	.
.	.	.	.	16B	.	.	.	.
.	.	.	.	16cJJ	.	.	.	.
.	.	16cLL	p	4r	.	16ccLL	p	.
.	.	16B	.	.	.	16dd	.	.
.	.	16c	.	.	.	16ee	.	.
.	.	16dJJ	.	.	.	16ffJJ	.	.
=74	=74	=74	=74	=74	=74	=74	=74	=74
4r	.	16dLL	.	4r	.	16ffLL	.	V
.	.	16e	.	.	.	16gg	.	.
.	.	16f	.	.	.	16aa	.	.
.	.	16eJJ	.	.	.	16ggJJ	.	.
16ELL	p	4r	.	16gLL	p	4r	.	.
16F	.	.	.	16a	.	.	.	.
16E	.	.	.	16g	.	.	.	.
16DJJ	.	.	.	16fJJ	.	.	.	.
=75	=75	=75	=75	=75	=75	=75	=75	=75
16DLL	.	4r	.	16fLL	.	4r	.	.
16C	.	.	.	16e	.	.	.	.
16BB	.	.	.	16d#X	.	.	.	.
16CJJ	.	.	.	16eJJ	.	.	.	.
4r	p	16cLL	.	4r	.	16eeLL	.	.
.	.	16d	.	.	.	16ff	.	.
.	.	16e	.	.	.	16gg	.	.
.	.	16fJJ	.	.	.	16aaJJ	.	.
=76	=76	=76	=76	=76	=76	=76	=76	=76
4r	.	16f#LL	.	4r	.	16aaLL	.	.
.	.	16g	.	.	.	16bb-	.	.
.	.	16a	.	.	.	16ccc	.	.
.	.	16gJJ	.	.	.	16bb-JJ	.	.
16ALL	f	8r	f	16ccLL	.	8r	.	.
16B-	.	.	.	16dd	.	.	.	.
16A	.	8cc	f	16cc	.	8ccc	f	.
16GJJ	.	.	.	16b-JJ	.	.	.	.
=77	=77	=77	=77	=77	=77	=77	=77	=77
16FLL	sf	8r	.	16aLL	sf	8r	.	I
16A	.	.	.	16cc	.	.	.	.
16B-	.	8ff	.	16dd	.	8fff	.	.
16cJJ	.	.	.	16eeJJ	.	.	.	.
16dLL	.	8r	.	16ffLL	.	8r	.	.
16e	.	.	.	16gg	.	.	.	.
16d	.	8f	.	16ff	.	8fff	.	.
16cJJ	.	.	.	16eeJJ	.	.	.	.
=78	=78	=78	=78	=78	=78	=78	=78	=78
16cLL	.	8r	.	16eeLL	.	8r	.	IV
16B-	.	.	.	16dd	.	.	.	.
16A	.	8dd	.	16cc#	.	8ddd	.	.
16B-JJ	.	.	.	16ddJJ	.	.	.	.
16B-LL	.	8r	.	16ddLL	.	8r	.	.
16c	.	.	.	16ee	.	.	.	.
16B-	.	8d	.	16dd	.	8ddd	.	.
16AJJ	.	.	.	16ccXJJ	.	.	.	.
=79	=79	=79	=79	=79	=79	=79	=79	=79
16GLL	.	8r	.	16b-LL	.	8r	.	V
16F	.	.	.	16a	.	.	.	.
16E	.	8b-	.	16g	.	8ddd	.	.
16DJJ	.	.	.	16fJJ	.	.	.	.
16CLL	.	8r	.	16eLL	.	8r	.	.
16BB-	.	.	.	16d	.	.	.	.
16AA	.	8g 8cc	.	16c	.	8eee	.	.
16GGJJ	.	.	.	16B-JJ	.	.	.	.
=	=	=	=	=	=	=	=	=
8FF	.	8r	.	8A	.	8r	.	I\\
8r	.	8a 8cc	.	8r	.	8fff	.	.
=80:|!|:	=80:|!|:	=80:|!|:	=80:|!|:	=80:|!|:	=80:|!|:	=80:|!|:	=80:|!|:	=80:|!|:
!LO:TX:b:i:t=sempre p e dolce	!	!	!	!	!	!LO:TX:b:i:t=sempre p e dolce	!	!
(8FFL	.	4r	.	4r	.	(4cc	.	V
8EEJ	.	.	.	.	.	.	.	.
=81	=81	=81	=81	=81	=81	=81	=81	=81
8FFL	.	2r	.	2r	.	4a	.	I
8GG	.	.	.	.	.	.	.	.
8AA	.	.	.	.	.	4ff	.	.
8FFJ	.	.	.	.	.	.	.	.
=82	=82	=82	=82	=82	=82	=82	=82	=82
!	!	!LO:TX:b:i:t=sempre p e dolce	!	!	!	!	!	!
!	!	!LO:TX:a:i:t=sempre p e dolce	!	!	!	!	!	!
2BB-)	.	(8B-L	.	(8dL	.	4ee	.	IV(4)
.	.	8c	.	8e	.	.	.	.
.	.	8d	.	8f	.	4dd	.	IV
.	.	8B-J)	.	8dJ)	.	.	.	.
=83	=83	=83	=83	=83	=83	=83	=83	=83
(8GGL	.	2r	.	2r	.	4cc	.	ii(4)
8AA	.	.	.	.	.	.	.	.
8BB-	.	.	.	.	.	4b-	.	ii
8GGJ	.	.	.	.	.	.	.	.
=84	=84	=84	=84	=84	=84	=84	=84	=84
2C)	.	(8EL	.	(8cL	.	4a	.	V(6)
.	.	8F	.	8d	.	.	.	.
.	.	8G	.	8e	.	4g)	.	V
.	.	8EJ)	.	8cJ)	.	.	.	.
=85	=85	=85	=85	=85	=85	=85	=85	=85
(8CL	.	(8EL	.	(8cL	.	(4g	.	V7
8D	.	8F	.	8B	.	.	.	.
8E	.	8G	.	8c	.	4cc	.	.
8CJ	.	8EJ	.	8B-XJ)	.	.	.	.
=86	=86	=86	=86	=86	=86	=86	=86	=86
8FL	.	8AL	.	4r	.	4b-	.	I(4)
8G	.	8B-	.	.	.	.	.	.
8A	.	8c	.	8cL	.	[4a	.	.
8FJ)	.	8AJ	.	8dJ	.	.	.	.
=87	=87	=87	=87	=87	=87	=87	=87	=87
2E	.	8BL	.	2e	.	4a]	.	vi.V7(4)/V
.	.	8c	.	.	.	.	.	.
.	.	8d	.	.	.	4g#X	.	V7/V
.	.	8BJ)	.	.	.	.	.	.
=	=	=	=	=	=	=	=	=
4AA	.	4c#	.	4A	.	4a)	.	V\\
=88:|!|:	=88:|!|:	=88:|!|:	=88:|!|:	=88:|!|:	=88:|!|:	=88:|!|:	=88:|!|:	=88:|!|:
4r	.	[4a	.	4r	.	(4aa	.	I.V/ii
=89	=89	=89	=89	=89	=89	=89	=89	=89
!	!	!	!	!	!	!LO:TX:a:i:t=sempre p e dolce	!	!
(8DDL	.	(4a]	.	(4cc	.	4ff#	.	vi[V7/ii
8AA	.	.	.	.	.	.	.	.
8BB-	.	4g)	.	[4b-)	.	4gg	.	ii6
8DDJ)	.	.	.	.	.	.	.	.
=90	=90	=90	=90	=90	=90	=90	=90	=90
2r	.	(8DL	.	(4b-]	.	4g 4ee	.	V7/vi
.	.	8c#	.	.	.	.	.	.
.	.	8d	.	4a)	.	4f 4ffX	.	vi]
.	.	8DJ)	.	.	.	.	.	.
=91	=91	=91	=91	=91	=91	=91	=91	=91
(8C#L	.	2r	.	(4f#	.	(4dd#X)	.	#V[V/vii
8A	.	.	.	.	.	.	.	.
8B-	.	.	.	[4g)	.	[4ee)	.	vii
8C#J)	.	.	.	.	.	.	.	.
=92	=92	=92	=92	=92	=92	=92	=92	=92
2r	.	(8c#L	.	4g]	.	4ee]	.	.
.	.	8a	.	.	.	.	.	.
.	.	8b-	.	[4g	.	(4ee	.	viio7]
.	.	8c#J)	.	.	.	.	.	.
=93	=93	=93	=93	=93	=93	=93	=93	=93
(8CXL	.	2r	.	(8gL]	.	(4ee)	.	V7
8G	.	.	.	8b-	.	.	.	.
8A	.	.	.	8fX	.	4ff	.	I6
8CJ)	.	.	.	8aJ	.	.	.	.
=94	=94	=94	=94	=94	=94	=94	=94	=94
4r	.	(8cXL	.	8eL	.	4gg)	.	V7
.	.	8a	.	8f	.	.	.	.
[4C	.	8b-	.	8e	.	[4g	.	.
.	.	8cJ)	.	(8ccJ)	.	.	.	.
=95	=95	=95	=95	=95	=95	=95	=95	=95
!LO:TX:b:i:t=cresc.	!	!LO:TX:b:i:t=cresc.	!	!LO:TX:b:i:t=cresc.	!	!LO:TX:b:i:t=cresc.	!	!
(8CL]	.	(4B-	.	4cc)	.	(4g]	.	.
8E	.	.	.	.	.	.	.	.
8F	.	4A	.	[4c	.	4a	.	I
8CJ	.	.	.	.	.	.	.	.
=96	=96	=96	=96	=96	=96	=96	=96	=96
8GL	.	4G	.	4c]	.	4b-	.	V7
8C	.	.	.	.	.	.	.	.
8E	>	[4c)	>]	(4g	>]	4cc	>]	.
8CJ)	]]	.	.	.	.	.	.	.
=97	=97	=97	=97	=97	=97	=97	=97	=97
!LO:TX:b:i:t=sotto voce	!	!LO:TX:b:i:t=sotto voce	!	!LO:TX:b:i:t=sotto voce	!	!LO:TX:b:i:t=sotto voce	!	!
(8FFL	.	(8cL]	.	8aL	.	(4a)	.	I
8GG	.	8B-	.	8g	.	.	.	.
8AA	.	8A	.	8f	.	4ff	.	.
8FFJ)	.	8cJ	.	8aJ	.	.	.	.
=98	=98	=98	=98	=98	=98	=98	=98	=98
2BB-	.	8B-L	.	8dL	.	4ee	.	IV(4)
.	.	8c	.	8e	.	.	.	.
.	.	8d	.	8f	.	[4dd	.	IV
.	.	8B-J)	.	8dJ	.	.	.	.
=99	=99	=99	=99	=99	=99	=99	=99	=99
(8GGL	.	(8B-L	.	8eL	.	4dd]	.	V43(2)
8AA	.	8A	.	8f	.	.	.	.
8BB-	.	8G	.	8e	.	4cc	.	V7
8CJ)	.	8EJ)	.	8cJ) 8g	.	.	.	.
=	=	=	=	=	=	=	=	=
4FF	.	4F	.	4c 4f	.	4a)	.	I\\
=100:|!|:	=100:|!|:	=100:|!|:	=100:|!|:	=100:|!|:	=100:|!|:	=100:|!|:	=100:|!|:	=100:|!|:
!LO:TX:b:i:t=sempre f	!	!	!	!	!	!	!	!
!LO:TX:a:i:t=sempre f	!	!LO:TX:a:i:t=sempre f	!	!	!	!LO:TX:b:i:t=sempre f	!	!
8r	.	8r	.	8r	.	[4cc	.	I6
8AA'	.	8F'	.	8c'	.	.	.	.
=101	=101	=101	=101	=101	=101	=101	=101	=101
8FF'L	.	8F'L	.	8A'L	.	16ccLL]	.	I
.	.	.	.	.	.	(16f	.	.
8AA'J	.	8F'J	.	8c'J	.	16a	.	.
.	.	.	.	.	.	16ccJJ)	.	.
8r	.	8r	.	8r	.	[4ff	.	vi
8D'	.	8F'	.	8f'	.	.	.	.
=102	=102	=102	=102	=102	=102	=102	=102	=102
8BB-'L	.	8F'L	.	8d'L	.	16ffLL]	.	IV
.	.	.	.	.	.	(16dd	.	.
8D'J	.	8F'J	.	8f'J	.	16ff	.	.
.	.	.	.	.	.	16bb-JJ)	.	.
8r	.	8r	.	8r	.	[4ddd	sf	.
8B-'	.	8d'	.	8dd'	.	.	.	.
=103	=103	=103	=103	=103	=103	=103	=103	=103
8G'L	.	8B-'L	.	8b-'L	.	16dddLL]	.	ii
.	.	.	.	.	.	(16B-	.	.
8B-'J	.	8d'J	.	8dd'J	.	16d	.	.
.	.	.	.	.	.	16gJJ)	.	.
8r	.	8r	.	8r	.	[4b-	.	.
8G'	.	8d'	.	8b-'	.	.	.	.
=104	=104	=104	=104	=104	=104	=104	=104	=104
8E'L	.	8c'L	.	8g'L	.	16b-LL]	.	V65
.	.	.	.	.	.	(16g	.	.
8G'J	.	8c'J	.	8b-'J	.	16b-	.	.
.	.	.	.	.	.	16eeJJ)	.	.
8r	.	8r	.	8r	.	[4gg	.	.
8E'	.	8c'	.	8g'	.	.	.	.
=105	=105	=105	=105	=105	=105	=105	=105	=105
8C'L	.	8c'L	.	8e'L	.	16ggLL]	.	V
.	.	.	.	.	.	(16c	.	.
8E'J	.	8c'J	.	8g'J	.	16e	.	.
.	.	.	.	.	.	16gJJ)	.	.
8r	.	8r	.	8r	.	[4cc	.	V6
8E'	.	8c'	.	8g'	.	.	.	.
=106	=106	=106	=106	=106	=106	=106	=106	=106
8F'L	.	8c'L	.	8a'L	.	16ccLL]	.	I
.	.	.	.	.	.	(16a	.	.
8A'J	.	8c'J	.	8cc'J	.	16cc	.	.
.	.	.	.	.	.	16ffJJ)	.	.
8r	.	8r	.	8r	.	[4aa	.	.
8F'	.	8A'	.	8a'	.	.	.	.
=107	=107	=107	=107	=107	=107	=107	=107	=107
8B-'L	.	8d'L	.	8dd'L	.	16aaLL]	.	IV(7)
.	.	.	.	.	.	(16dd	.	.
8BB-'J	.	8D'J	.	8d'J	.	16ff	.	.
.	.	.	.	.	.	16aaJJ	.	.
8r	.	8r	.	8r	.	16dddLL	.	.
.	.	.	.	.	.	16eee	.	.
8BB-'	.	8d'	.	8dd'	.	16fff	.	ii6-iv6/vi
.	.	.	.	.	.	16gggJJ)	.	.
=	=	=	=	=	=	=	=	=
8AA'	.	8A'	.	8cc#'	.	8aaaL	.	V/vi\\
8r	.	8r	.	8r	.	8AJ	.	.
=108:|!|:	=108:|!|:	=108:|!|:	=108:|!|:	=108:|!|:	=108:|!|:	=108:|!|:	=108:|!|:	=108:|!|:
8r	.	8r	.	8r	.	[4aa	.	viio6/IV
8c'	.	8e-X'	.	8a' 8ccX	.	.	.	.
=109	=109	=109	=109	=109	=109	=109	=109	=109
8d'L	.	8d'L	.	8a'L 8cc	.	16aaLL]	.	V7/ii
.	.	.	.	.	.	(16a	.	.
8D'J	.	8d'J	.	8a'J 8cc	.	16cc	.	.
.	.	.	.	.	.	16ff#JJ)	.	.
8r	.	8r	.	8r	.	[4gg	.	ii
8G	.	8g	.	8d 8b-	.	.	.	.
=110	=110	=110	=110	=110	=110	=110	=110	=110
8cL	.	8gL	.	8cL 8b-	.	16ggLL]	.	V7
.	.	.	.	.	.	(16g	.	.
8CJ	.	8gJ	.	8cJ 8b-	.	16cc	.	.
.	.	.	.	.	.	16eeJJ)	.	.
8r	.	8r	.	8r	.	8ffXL	.	I
8F	.	8c	.	8a	.	8aaJ	.	.
=111	=111	=111	=111	=111	=111	=111	=111	=111
8FL	.	8d#XL	.	8ccL	.	16aaLL	.	.Ger6/iii
.	.	.	.	.	.	(16A	.	.
8FFJ	.	8d#J	.	8aJ	.	16c	.	.
.	.	.	.	.	.	16AJJ)	.	.
8r	.	8r	.	8r	.	(16eLL	.	V/iii
.	.	.	.	.	.	16g#X	.	.
8E	.	8e	.	8g#X	.	16b	.	.
.	.	.	.	.	.	16eeJJ	.	.
=112	=112	=112	=112	=112	=112	=112	=112	=112
8EL	.	8eL	.	8eeL	.	16gg#XLL	.	V/iii
.	.	.	.	.	.	16bb	.	.
8EEJ	.	8EJ	.	8eJ	.	16ddd#X	.	.
.	.	.	.	.	.	16eeeJJ)	.	.
8r	.	8r	.	8r	.	[4ee	.	V7
8c	.	8G 8B-	.	8c 8b-	.	.	.	.
=113	=113	=113	=113	=113	=113	=113	=113	=113
8cL	.	8GL 8B-	.	8cL 8b-	.	16eeLL]	.	.
.	.	.	.	.	.	(16A	.	.
8CJ	.	8GJ 8B-	.	8cJ 8b-	.	16g	.	.
.	.	.	.	.	.	16ccJJ)	.	.
8r	.	8r	.	8r	.	[4ee	.	.
8c	.	8G 8B-	.	8c 8b-	.	.	.	.
=114	=114	=114	=114	=114	=114	=114	=114	=114
8cL	.	8GL 8B-	.	8cL 8b-	.	16eeLL]	.	.
.	.	.	.	.	.	(16e	.	.
8CJ	.	8GJ 8B-	.	8cJ 8b-	.	16g	.	.
.	.	.	.	.	.	16ccJJ)	.	.
8r	.	8r	.	8r	.	[4gg	.	.
8c	.	8G 8B-	.	8c 8b-	.	.	.	.
=115	=115	=115	=115	=115	=115	=115	=115	=115
8cL	.	8GL 8B-	.	8cL 8b-	.	16ggLL]	.	.
.	.	.	.	.	.	(16e	.	.
8CJ	.	8GJ 8B-	.	8cJ 8b-	.	16g	.	.
.	.	.	.	.	.	16ccJJ)	.	.
8r	.	8r	.	8r	.	[4gg	.	.
8E	.	8G 8B-	.	8g 8cc	.	.	.	.
=116	=116	=116	=116	=116	=116	=116	=116	=116
8EL	.	8GL 8B-	.	8gL 8cc	.	16ggLL]	.	V65
.	.	.	.	.	.	(16g	.	.
8EEJ	.	8GJ 8B-	.	8gJ 8cc	.	16cc	.	.
.	.	.	.	.	.	16eeJJ)	.	.
8r	.	8r	.	8r	.	8bb-XL	.	.
8E	.	8G 8B-	.	8g 8cc	.	[8cccJ	sf	.
=117	=117	=117	=117	=117	=117	=117	=117	=117
8FL	.	8FL 8A	.	8aL 8cc	.	16cccLL]	.	I
.	.	.	.	.	.	(16A	.	.
8FFJ	.	8FJ 8A	.	8aJ 8cc	.	16c	.	.
.	.	.	.	.	.	16fJJ)	.	.
8r	.	8r	.	8r	.	[4a	sf	.
8F	.	8a	.	8cc	.	.	.	.
=118	=118	=118	=118	=118	=118	=118	=118	=118
8B-L	.	8fL	.	8ddL	.	16aLL]	.	ii6
.	.	.	.	.	.	(16d	.	.
8BB-J	.	8dJ	.	8ddJ	.	16g	.	.
.	.	.	.	.	.	16b-JJ)	.	.
8r	.	8r	.	8r	.	[4dd	sf	ii
8G	.	8g	.	8d 8b-	.	.	.	.
=119	=119	=119	=119	=119	=119	=119	=119	=119
8cL	.	8gL	.	8cL 8b-	.	16ddLL]	.	V7
.	.	.	.	.	.	(16cc	.	.
8CJ	.	8gJ	.	8cJ 8b-	.	16ee	.	.
.	.	.	.	.	.	16ggJJ	.	.
8r	.	8r	.	8r	.	16bb-LL	.	.
.	.	.	.	.	.	16ccc	.	.
8C	.	8g	.	8c 8b-	.	16ddd	.	.
.	.	.	.	.	.	16eeeJJ)	.	.
=	=	=	=	=	=	=	=	=
8FF	.	8f	.	8c 8a	.	8fffL	.	I\\
8r	.	8r	.	8r	.	8fJ	.	.
=120:|!|:	=120:|!|:	=120:|!|:	=120:|!|:	=120:|!|:	=120:|!|:	=120:|!|:	=120:|!|:	=120:|!|:
!	!	!	!	!	!	!LO:TX:a:B:t=un poco più vivace	!	!
12FFL	pp	4r	.	4r	.	4r	.	I[I
12FF	.	.	.	.	.	.	.	.
12FFJ	.	.	.	.	.	.	.	.
=121	=121	=121	=121	=121	=121	=121	=121	=121
12FFL	.	2r	.	2r	.	2r	.	.
12FF	.	.	.	.	.	.	.	.
12FFJ	.	.	.	.	.	.	.	.
12FFL	.	.	.	.	.	.	.	.
12FF	.	.	.	.	.	.	.	.
12FFJ	.	.	.	.	.	.	.	.
=122	=122	=122	=122	=122	=122	=122	=122	=122
12FFL	.	4r	.	4r	.	4r	.	.
12FF	.	.	.	.	.	.	.	.
12FFJ	.	.	.	.	.	.	.	.
12FFL	.	(8fL	pp	(8aL	pp	(8ccL	pp	.
12FF	.	.	.	.	.	.	.	.
.	.	8eJ	.	8b-J	.	8ddJ	.	vii%
12FFJ	.	.	.	.	.	.	.	.
=123	=123	=123	=123	=123	=123	=123	=123	=123
12FFL	.	8fL	.	8aL	.	8ccL	.	I
12FF	.	.	.	.	.	.	.	.
.	.	8e	.	8b-	.	8dd	.	vii%
12FFJ	.	.	.	.	.	.	.	.
12FFL	.	8f	.	8a	.	8cc	.	I
12FF	.	.	.	.	.	.	.	.
.	.	8AJ	.	8ccJ)	.	8ffJ	.	.
12FFJ	.	.	.	.	.	.	.	.
=124	=124	=124	=124	=124	=124	=124	=124	=124
12FFL	.	8AL	.	(8ccL	.	8eeL	.	.
12FF	.	.	.	.	.	.	.	.
.	.	8B-)	.	8b-	.	8dd	.	IV
12FFJ	.	.	.	.	.	.	.	.
12FFL	.	(8B-	.	8b-	.	8dd	.	.
12FF	.	.	.	.	.	.	.	.
.	.	8cJ	.	8aJ	.	8ccJ)	.	I64
12FFJ	.	.	.	.	.	.	.	.
=125	=125	=125	=125	=125	=125	=125	=125	=125
12FFL	.	8dL	.	8aL	.	(8ccL	.	vi7
12FF	.	.	.	.	.	.	.	.
.	.	8e	.	8g	.	8b-	.	viio
12FFJ	.	.	.	.	.	.	.	.
12FFL	.	8G	.	8e	.	8b-	.	viio6
12FF	.	.	.	.	.	.	.	.
.	.	8AJ	.	8fJ)	.	8aJ)	.	I6
12FFJ	.	.	.	.	.	.	.	.
=126	=126	=126	=126	=126	=126	=126	=126	=126
12FFL	.	8AL	.	(8fL	.	(8aL	.	.
12FF	.	.	.	.	.	.	.	.
.	.	8B-	.	8e	.	8g	.	viio64
12FFJ	.	.	.	.	.	.	.	.
12FFL	.	8B-	.	8e	.	8g	.	.
12FF	.	.	.	.	.	.	.	.
.	.	8AJ)	.	8fJ	.	8aJ)	.	I6
12FFJ	.	.	.	.	.	.	.	.
=127	=127	=127	=127	=127	=127	=127	=127	=127
12FFL	.	(8B-L	.	8eL	.	(8gL	.	viio64
12FF	.	.	.	.	.	.	.	.
.	.	8A	.	8f	.	8a	.	I6
12FFJ	.	.	.	.	.	.	.	.
12FFL	.	8A	.	8f	.	8a	.	.
12FF	.	.	.	.	.	.	.	.
.	.	8GJ	.	8eJ	.	8b-J)	.	viio6
12FFJ	.	.	.	.	.	.	.	.
=128	=128	=128	=128	=128	=128	=128	=128	=128
12FFL	.	8AL	.	8fL	.	(8aL	.	I6
12FF	.	.	.	.	.	.	.	.
.	.	8G	.	8g	.	8b-	.	viio6
12FFJ	.	.	.	.	.	.	.	.
12FFL	.	8F	.	8a	.	8cc	.	I
12FF	.	.	.	.	.	.	.	.
.	.	8AJ)	.	8fJ)	.	8cc#J)	.	I+6
12FFJ	.	.	.	.	.	.	.	.
=129	=129	=129	=129	=129	=129	=129	=129	=129
12FFL	.	(8B-L	.	(8fL	.	(8ddL	.	IV
12FF	.	.	.	.	.	.	.	.
.	.	8g	.	8b-	.	8ee	.	viio
12FFJ	.	.	.	.	.	.	.	.
12FFL	.	8a	.	8cc	.	8ff	.	I6
12FF	.	.	.	.	.	.	.	.
.	.	8eJ)	.	8ccJ)	.	8ggJ)	.	V6
12FFJ	.	.	.	.	.	.	.	.
=	=	=	=	=	=	=	=	=
12FFL	.	4f	.	4cc	.	4aa	.	I]\\
12FF	.	.	.	.	.	.	.	.
12FFJ	.	.	.	.	.	.	.	.
=130:|!|:	=130:|!|:	=130:|!|:	=130:|!|:	=130:|!|:	=130:|!|:	=130:|!|:	=130:|!|:	=130:|!|:
!LO:TX:b:i:t=sempre pp	!	!LO:TX:b:i:t=sempre pp	!	!LO:TX:b:i:t=sempre pp	!	!LO:TX:b:i:t=sempre pp	!	!
12EE-XL	.	(4c	.	(8aL	.	(8aaL	.	.bVII.vi6(4)
12EE-	.	.	.	.	.	.	.	.
.	.	.	.	8gJ	.	8ggJ	.	vi6
12EE-J	.	.	.	.	.	.	.	.
=131	=131	=131	=131	=131	=131	=131	=131	=131
12EE-XL	.	2B-)	.	8gL	.	8ggL	.	I[I64
12EE-	.	.	.	.	.	.	.	.
.	.	.	.	8f#	.	8ff#	.	.
12EE-J	.	.	.	.	.	.	.	.
12EE-L	.	.	.	8f#	.	8ff#	.	.
12EE-	.	.	.	.	.	.	.	.
.	.	.	.	8gJ)	.	8ggJ)	.	.
12EE-J	.	.	.	.	.	.	.	.
=132	=132	=132	=132	=132	=132	=132	=132	=132
12EE-XL	.	(8A-XL	.	(8fXL	.	(8ffXL	.	ii6
12EE-	.	.	.	.	.	.	.	.
.	.	8G	.	8e-X	.	8ee-X	.	I6
12EE-J	.	.	.	.	.	.	.	.
12EE-L	.	8G	.	8e-	.	8ee-	.	.
12EE-	.	.	.	.	.	.	.	.
.	.	8A-J)	.	8fJ)	.	8ffJ)	.	ii6
12EE-J	.	.	.	.	.	.	.	.
=133	=133	=133	=133	=133	=133	=133	=133	=133
12EE-XL	.	(8FL	.	(8dL	.	(8ddL	.	viio6
12EE-	.	.	.	.	.	.	.	.
.	.	8A-XJ)	.	8fJ)	.	8ffJ)	.	.
12EE-J	.	.	.	.	.	.	.	.
12EE-L	.	[4G	.	[4e-X	.	[4ee-X	.	I6
12EE-	.	.	.	.	.	.	.	.
12EE-J	.	.	.	.	.	.	.	.
=134	=134	=134	=134	=134	=134	=134	=134	=134
12EE-XL	.	4G]	.	4e-]	.	4ee-]	.	.
12EE-	.	.	.	.	.	.	.	.
12EE-J	.	.	.	.	.	.	.	.
12EE-L	.	(8GL	.	(8e-XL	.	(8ee-XL	.	.
12EE-	.	.	.	.	.	.	.	.
.	.	8B-J)	.	8dJ)	.	8ddJ)	.	V
12EE-J	.	.	.	.	.	.	.	.
=135	=135	=135	=135	=135	=135	=135	=135	=135
12EE-XL	.	(8B-L	.	(8dL	.	(8ddL	.	.
12EE-	.	.	.	.	.	.	.	.
.	.	8A-X	.	8c	.	8ccX	.	IV
12EE-J	.	.	.	.	.	.	.	.
12EE-L	.	8G	.	8B-	.	8ee-X	.	I6
12EE-	.	.	.	.	.	.	.	.
.	.	8FJ)	.	8a-XJ)	.	8ffJ)	.	V
12EE-J	.	.	.	.	.	.	.	.
=136	=136	=136	=136	=136	=136	=136	=136	=136
12EE-XL	.	(8FL	.	(8a-XL	.	(8ffL	.	.
12EE-	.	.	.	.	.	.	.	.
.	.	8E-X)	.	8g)	.	8gg)	.	I
12EE-J	.	.	.	.	.	.	.	.
12EE-L	.	(8B-	.	(8g	.	(8gg	.	.
12EE-	.	.	.	.	.	.	.	.
.	.	8A-XJ)	.	8fJ)	.	8ffJ)	.	ii6
12EE-J	.	.	.	.	.	.	.	.
=137	=137	=137	=137	=137	=137	=137	=137	=137
12EE-XL	.	(8A-XL	.	(8fL	.	(8ffL	.	.
12EE-	.	.	.	.	.	.	.	.
.	.	8G	.	8e-X	.	8ee-X	.	I6
12EE-J	.	.	.	.	.	.	.	.
12EE-L	.	8e-X	.	8g	.	8gg	.	I
12EE-	.	.	.	.	.	.	.	.
.	.	8fJ	.	8a-XJ	.	8aa-XJ	.	ii
12EE-J	.	.	.	.	.	.	.	.
=138	=138	=138	=138	=138	=138	=138	=138	=138
12EE-XL	.	8gL	.	8b-L	.	8bb-L	.	I6]
12EE	.	.	.	.	.	.	.	.
.	.	8B-	.	8g	.	8cc)	.	I.V65
12EEJ	.	.	.	.	.	.	.	.
12FFL	.	8A	.	8f	.	(8cc	.	I[I6
12FF	.	.	.	.	.	.	.	.
.	.	8B-J	.	8eJ	.	8ddJ	.	vii%43
12FFJ	.	.	.	.	.	.	.	.
=139	=139	=139	=139	=139	=139	=139	=139	=139
12FFL	.	8AL	.	8fL	.	8ccL	.	I6
12FF	.	.	.	.	.	.	.	.
.	.	8B-	.	8e	.	8dd	.	vii%43
12FFJ	.	.	.	.	.	.	.	.
12FFL	.	8A	.	8f	.	8cc	.	I6
12FF	.	.	.	.	.	.	.	.
.	.	8aJ)	.	8ccJ)	.	8ffJ	.	.
12FFJ	.	.	.	.	.	.	.	.
=140	=140	=140	=140	=140	=140	=140	=140	=140
12FFL	.	(8aL	.	(8ccL	.	8eeL	.	.
12FF	.	.	.	.	.	.	.	.
.	.	8b-	.	8b-	.	8dd)	.	IV
12FFJ	.	.	.	.	.	.	.	.
12FFL	.	8e	.	8g	.	(8dd	.	vii%7
12FF	.	.	.	.	.	.	.	.
.	.	8fJ	.	8aJ	.	8ccJ	.	I
12FFJ	.	.	.	.	.	.	.	.
=141	=141	=141	=141	=141	=141	=141	=141	=141
12FFL	.	8GL	.	8eL	.	8b-L	.	viio6
12FF	.	.	.	.	.	.	.	.
.	.	8A	.	8e-X	.	8cc	.	viio/IV
12FFJ	.	.	.	.	.	.	.	.
12FFL	.	8B-	.	8d	.	8dd	.	IV
12FF	.	.	.	.	.	.	.	.
.	.	8cJ)	.	8B-J)	.	8eeJ)	.	V7
12FFJ	.	.	.	.	.	.	.	.
=142	=142	=142	=142	=142	=142	=142	=142	=142
12FFL	.	4c	.	4A	.	4ff	.	I]\\
12FF	.	.	.	.	.	.	.	.
12FFJ	.	.	.	.	.	.	.	.
=143:|!	=143:|!	=143:|!	=143:|!	=143:|!	=143:|!	=143:|!	=143:|!	=143:|!
4FF	.	4c	.	4A	.	12ffL	<	I]
.	.	.	.	.	.	12cc	.	.
.	.	.	.	.	.	12ccJ	.	.
4r	.	(8cL	<	4r	.	12ccL	.	.
.	.	.	.	.	.	12cc	.	.
.	.	8dJ	.	.	.	.	.	.
.	.	.	.	.	.	12ccJ	.	.
=144	=144	=144	=144	=144	=144	=144	=144	=144
2A	<	8cL	.	2r	.	12ccL	.	I6
.	.	.	.	.	.	12cc	.	.
.	.	8d	.	.	.	.	.	.
.	.	.	.	.	.	12ccJ	.	.
.	.	8c	.	.	.	12ccL	.	.
.	.	.	.	.	.	12cc	.	.
.	.	8fJ	.	.	.	.	.	.
.	.	.	.	.	.	12ccJ	.	.
=145	=145	=145	=145	=145	=145	=145	=145	=145
2B-	.	8eL	.	2r	.	12ccL	.	V2
.	.	.	.	.	.	12cc	.	.
.	.	8d	.	.	.	.	.	.
.	.	.	.	.	.	12ccJ	.	.
.	.	8e	.	.	.	12ccL	.	.
.	.	.	.	.	.	12cc	.	.
.	.	8dJ	.	.	.	.	.	.
.	.	.	.	.	.	12ccJ	.	.
=146	=146	=146	=146	=146	=146	=146	=146	=146
2G	[[	8cL	.	2r	.	12ccL	.	V43
.	.	.	.	.	.	12cc	.	.
.	.	8B-	.	.	.	.	.	.
.	.	.	.	.	.	12ccJ	.	.
.	.	8c	.	.	.	12ccL	.	.
.	.	.	.	.	.	12cc	.	.
.	.	8B-J	[[	.	.	.	.	.
.	.	.	.	.	.	12ccJ	[[	.
=147	=147	=147	=147	=147	=147	=147	=147	=147
(4E	>	8AL	>	4r	.	12ccL	>	V6
.	.	.	.	.	.	12cc	.	.
.	.	8GJ)	.	.	.	.	.	.
.	.	.	.	.	.	12ccJ	.	.
4BB-	]	12cL	] <	(8ccL	<	(8cccL	] <	V2
.	.	12c	.	.	.	.	.	.
.	.	.	.	8ddJ	.	8dddJ	.	.
.	.	12cJ	.	.	.	.	.	.
=148	=148	=148	=148	=148	=148	=148	=148	=148
2AA)	<	12cL	.	8ccL	.	8cccL	.	I6
.	.	12c	.	.	.	.	.	.
.	.	.	.	8dd	.	8ddd	.	.
.	.	12cJ	.	.	.	.	.	.
.	.	12cL	.	8cc	.	8ccc	.	.
.	.	12c	.	.	.	.	.	.
.	.	.	.	8ffJ	.	8fffJ	.	.
.	.	12cJ	.	.	.	.	.	.
=149	=149	=149	=149	=149	=149	=149	=149	=149
2BB-	.	12cL	.	8eeL	.	8eeeL	.	V2
.	.	12c	.	.	.	.	.	.
.	.	.	.	8dd	.	8ddd	.	.
.	.	12cJ	.	.	.	.	.	.
.	.	12cL	.	8ee	.	8eee	.	.
.	.	12c	.	.	.	.	.	.
.	.	.	.	8ddJ	.	8dddJ	.	.
.	.	12cJ	.	.	.	.	.	.
=150	=150	=150	=150	=150	=150	=150	=150	=150
2GG	[[	12cL	.	8ccL	.	8cccL	.	V43
.	.	12c	.	.	.	.	.	.
.	.	.	.	8b-	.	8bb-	.	.
.	.	12cJ	.	.	.	.	.	.
.	.	12cL	.	8cc	.	8ccc	.	.
.	.	12c	.	.	.	.	.	.
.	.	.	.	8b-J	[[	8bb-J	[[	.
.	.	12cJ	[[	.	.	.	.	.
=151	=151	=151	=151	=151	=151	=151	=151	=151
4EE	>	12cL	>	8aL	>	8aaL	>	V6
.	.	12c	.	.	.	.	.	.
.	.	.	.	8gJ)	.	8ggJ)	.	.
.	.	12cJ	.	.	.	.	.	.
(8CL	]	12fL	]	12cL 12a	]	[4aa	]	I64
.	.	12f	.	12c 12a	.	.	.	.
8DJ	.	.	.	.	.	.	.	.
.	.	12fJ	.	12cJ 12a	.	.	.	.
=152	=152	=152	=152	=152	=152	=152	=152	=152
!	!	!LO:TX:a:i:t=cresc.	!	!	!	!	!	!
!LO:TX:b:i:t=cresc.	!	!LO:TX:a:i:t=cresc.	!	!	!	!LO:TX:a:i:t=cresc.	!	!
8CL	.	12fL	.	12cL 12a	.	(12aaL]	.	.
.	.	12f	.	12c 12a	.	12gg	.	.
8D	.	.	.	.	.	.	.	.
.	.	12fJ	.	12cJ 12a	.	12ffJ	.	.
8C	.	12fL	.	12cL 12a	.	12eeL	.	.
.	.	12f	.	12c 12a	.	12dd	.	.
8FJ	.	.	.	.	.	.	.	.
.	.	12fJ	.	12cJ 12a	.	12ccJ)	.	.
=153	=153	=153	=153	=153	=153	=153	=153	=153
8EL	.	12gL	.	12cL 12b-	.	4cc	.	V65
.	.	12g	.	12c 12b-	.	.	.	.
8D	.	.	.	.	.	.	.	.
.	.	12gJ	.	12cJ 12b-	.	.	.	.
8E	.	12gL	.	12cL 12b-	.	(16ccTLL	.	.
.	.	.	.	.	.	16b	.	.
.	.	12g	.	12c 12b-	.	.	.	.
8DJ	.	.	.	.	.	16cc	.	.
.	.	12gJ	.	12cJ 12b-	.	.	.	.
.	.	.	.	.	.	16ddJJ	.	.
=154	=154	=154	=154	=154	=154	=154	=154	=154
8CL	.	12eL	.	12cL 12g	.	4ee)	.	V
.	.	12e	.	12c 12g	.	.	.	.
8BB-	.	.	.	.	.	.	.	.
.	.	12eJ	.	12cJ 12g	.	.	.	.
8C	.	12eL	.	12cL 12g	.	(16ffTLL	.	.
.	.	.	.	.	.	16ee	.	.
.	.	12e	.	12c 12g	.	.	.	.
8BB-J	.	.	.	.	.	16ff	.	V2
.	.	12eJ	.	12cJ 12g	.	.	.	.
.	.	.	.	.	.	16ggJJ	.	.
=155	=155	=155	=155	=155	=155	=155	=155	=155
8AAL	.	12fL	.	12cL 12a	.	16aatLL	.	I6
.	.	.	.	.	.	16gg	.	.
.	.	12f	.	12c 12a	.	.	.	.
8GGJ)	.	.	.	.	.	16aa	.	V43
.	.	12gJ	.	12cJ 12b-	.	.	.	.
.	.	.	.	.	.	16bb-JJ	.	.
[4FF#	f	12AL	f f	12ccL	.	8cccL	f	V65/ii
.	.	12A	.	12cc	.	.	.	.
.	.	.	.	.	.	8eee-XJ)	.	.
.	.	12AJ	.	12ccJ	.	.	.	.
=156	=156	=156	=156	=156	=156	=156	=156	=156
4FF#]	.	12AL	.	12ccL	.	(8dddL	.	V65/ii
.	.	12d	.	12cc	.	.	.	.
.	.	.	.	.	.	8ccc	.	.
.	.	12dJ	.	12ccJ	.	.	.	.
(4GG	.	12dL	.	12b-L	.	8bb-	.	ii
.	.	12d	.	12b-	.	.	.	.
.	.	.	.	.	.	8ggJ	.	.
.	.	12dJ	.	12b-J	.	.	.	.
=157	=157	=157	=157	=157	=157	=157	=157	=157
4AA	>	12cL	>	12aL	>	8ff#L	>	#vii6/ii
.	.	12c	.	12a	.	.	.	.
.	.	.	.	.	.	8aa	.	.
.	.	12cJ	.	12aJ	.	.	.	.
4BB-	] p	12dL	] p	12gL	] p	8gg	] p	ii6
.	.	12d	.	12g	.	.	.	.
.	.	.	.	.	.	8dddJ)	.	.
.	.	12dJ	.	12b-J	.	.	.	.
=158	=158	=158	=158	=158	=158	=158	=158	=158
4C)	.	12cL	.	12aL	.	(4ffX	.	V(64)
.	.	12c	.	12a	.	.	.	.
.	.	12cJ	.	12aJ	.	.	.	.
!LO:TX:b:i:t=cresc.	!	!LO:TX:a:i:t=cresc.	!	!LO:TX:a:i:t=cresc.	!	!LO:TX:a:i:t=cresc.	!	!
(8cL	.	12cL	.	12gL	.	8eeL	.	V2
.	.	12c	.	12g	.	.	.	.
8B-J	.	.	.	.	.	8cccJ)	.	.
.	.	12cJ	.	12gJ	.	.	.	.
=159	=159	=159	=159	=159	=159	=159	=159	=159
8AL	.	12cL	.	12aL	.	(8cccL	.	I6
.	.	12F	.	12a	.	.	.	.
8GJ)	.	.	.	.	.	8bb-J	.	.
.	.	12GJ	.	12b-J	.	.	.	.
[4F#	f f	12AL	f	12ccL	.	8aaL	f	#viio7/ii
.	.	12A	.	12cc	.	.	.	.
.	.	.	.	.	.	8eee-XJ	.	.
.	.	12AJ	.	12ccJ	.	.	.	.
=160	=160	=160	=160	=160	=160	=160	=160	=160
4F#]	.	12AL	.	12ccL	.	8dddL	.	V65/ii
.	.	12d	.	12cc	.	.	.	.
.	.	.	.	.	.	8cccJ	.	.
.	.	12dJ	.	12ccJ	.	.	.	.
(4G	.	12dL	.	12b-L	.	8bb-L	.	ii
.	.	12d	.	12b-	.	.	.	.
.	.	.	.	.	.	8ggJ)	.	.
.	.	12dJ	.	12b-J	.	.	.	.
=161	=161	=161	=161	=161	=161	=161	=161	=161
4A	>	12cL	>	12aL	>	(12ff#L	>	V65/ii
.	.	12c	.	12a	.	12aa	.	.
.	.	12cJ	.	12aJ	.	12ddJ	.	.
4B-	] p	12dL	] p	12gL	] p	12ggL	] p	ii6
.	.	12d	.	12g	.	12bb-	.	.
.	.	12B-J	.	12gJ	.	12dddJ)	.	.
=162	=162	=162	=162	=162	=162	=162	=162	=162
4c	.	(12AL	.	(12fL	.	(12ffX	.	V(64)
.	.	12c	.	12a	.	12aa	.	.
.	.	12AJ)	.	12fJ)	.	12ccc)	.	.
4C)	.	12GL 12B-	.	12cL 12e	.	4ccc	.	V7
.	.	12G 12B-	.	12c 12e	.	.	.	.
.	.	12GJ 12B-	.	12cJ 12e	.	.	.	.
.	.	.	.	.	.	16qqbb/LL	.	.
.	.	.	.	.	.	16qqccc/JJ	.	.
=163	=163	=163	=163	=163	=163	=163	=163	=163
12FL	.	12AL	.	12cL 12f	.	4ff	.	I\\
12F	.	12A	.	12c 12f	.	.	.	.
12FJ	.	12AJ	.	12cJ 12f	.	.	.	.
12FL	.	12AL	.	12cL 12f	.	4r	.	.
12F	.	12A	.	12c 12f	.	.	.	.
12FJ	.	12AJ	.	12cJ 12f	.	.	.	.
=164	=164	=164	=164	=164	=164	=164	=164	=164
12E-XL	<	12F#L 12A	<	12cL 12f#	<	2r	.	#viio2/ii
12E-	.	12F# 12A	.	12c 12f#	.	.	.	.
12E-J	.	12F#J 12A	.	12cJ 12f#	.	.	.	.
12E-L	[ >	12F#L 12A	[ >	12cL 12f#	[ >	.	.	.
12E-	.	12F# 12A	.	12c 12f#	.	.	.	.
12E-J	]]	12F#J 12A	]]	12cJ 12f#	]]	.	.	.
=165	=165	=165	=165	=165	=165	=165	=165	=165
12FL	.	12AL	.	12cL 12fX	.	(2ff	.	I
12F	.	12A	.	12c 12f	.	.	.	.
12FJ	.	12AJ	.	12cJ 12f	.	.	.	.
12FL	.	12AL	.	12cL 12f	.	.	.	.
12F	.	12A	.	12c 12f	.	.	.	.
12FJ	.	12AJ	.	12cJ 12f	.	.	.	.
=166	=166	=166	=166	=166	=166	=166	=166	=166
12CL	.	12GL 12B-	.	12cL 12e	.	12eeL	.	V7
12C	.	12G 12B-	.	12c 12e	.	12bb-	.	.
12CJ	.	12GJ 12B-	.	12cJ 12e	.	12aaJ	.	.
12CL	.	12GL 12B-	.	12cL 12e	.	12ggL	.	.
12C	.	12G 12B-	.	12c 12e	.	12ff	.	.
12CJ	.	12GJ 12B-	.	12cJ 12e	.	12eeJ)	.	.
=167	=167	=167	=167	=167	=167	=167	=167	=167
12FFL	.	12AL	.	12cL 12f	.	4ff	.	I
12F	.	12A	.	12c 12f	.	.	.	.
12FJ	.	12AJ	.	12cJ 12f	.	.	.	.
12FL	.	12AL	.	12cL 12f	.	4r	.	.
12F	.	12A	.	12c 12f	.	.	.	.
12FJ	.	12AJ	.	12cJ 12f	.	.	.	.
=168	=168	=168	=168	=168	=168	=168	=168	=168
12E-XL	<	12F#L 12A	<	12cL 12f#	<	2r	.	#viio2/ii
12E-	.	12F# 12A	.	12c 12f#	.	.	.	.
12E-J	.	12F#J 12A	.	12cJ 12f#	.	.	.	.
12E-L	[ >	12F#L 12A	[ >	12cL 12f#	[ >	.	.	.
12E-	.	12F# 12A	.	12c 12f#	.	.	.	.
12E-J	]]	12F#J 12A	]]	12cJ 12f#	]]	.	.	.
=169	=169	=169	=169	=169	=169	=169	=169	=169
12FL	.	12AL	.	12cL 12fX	.	2ff	.	I
12F	.	12A	.	12c 12f	.	.	.	.
12FJ	.	12AJ	.	12cJ 12f	.	.	.	.
12FL	.	12AL	.	12cL 12f	.	.	.	.
12F	.	12A	.	12c 12f	.	.	.	.
12FJ	.	12AJ	.	12cJ 12f	.	.	.	.
=170	=170	=170	=170	=170	=170	=170	=170	=170
4C	.	4G 4B-	.	4c 4e	.	(12eeL	.	V7
.	.	.	.	.	.	12bb-	.	.
.	.	.	.	.	.	12aaJ	.	.
4r	.	8r	.	8r	.	8gg'L)	.	.
.	.	(16cLL	pp	(16eLL	pp	(16cccL	pp	.
.	.	16eJJ	.	16gJJ	.	16bb-JJ	.	.
=171	=171	=171	=171	=171	=171	=171	=171	=171
8r	.	8f')	.	8a')	.	8aa'L)	.	I
(16FLL	pp	8r	.	8r	.	(16cccL	.	.
16GJJ	.	.	.	.	.	16bb-JJ	.	.
8A')	.	8r	.	8r	.	8aa'L)	.	.
8r	.	(16fLL	.	(16aLL	.	(16fffL	.	.
.	.	16aJJ	.	16ccJJ	.	16eeeJJ	.	.
=172	=172	=172	=172	=172	=172	=172	=172	=172
8r	.	8b-')	.	8dd')	.	8ddd'L)	.	IV
(16B-LL	.	8r	.	8r	.	(16dddL	.	.
16cJJ	.	.	.	.	.	16cccJJ	.	.
8d')	.	8r	.	8r	.	8bb-'L)	.	.
8r	.	(16gLL	.	(16b-LL	.	(16dddL	.	.
.	.	16aJJ	.	16ccJJ	.	16cccJJ	.	.
=173	=173	=173	=173	=173	=173	=173	=173	=173
8r	.	8b-')	.	8dd')	.	8bb-'L)	.	ii
(16GLL	.	8r	.	8r	.	(16bb-L	.	.
16AJJ	.	.	.	.	.	16aaJJ	.	.
8B-')	.	8r	.	8r	.	8gg'L)	.	.
8r	.	(16eLL	.	(16gLL	.	(16bb-L	.	.
.	.	16fJJ	.	16aJJ	.	16aaJJ	.	.
=174	=174	=174	=174	=174	=174	=174	=174	=174
8r	.	8g')	.	8b-')	.	8gg'L)	.	V65
(16ELL	.	8r	.	8r	.	(16ggL	.	.
16FJJ	.	.	.	.	.	16ffJJ	.	.
8G')	.	8r	.	8r	.	8ee'L)	.	.
8r	.	(16cLL	.	(16eLL	.	(16ggL	.	.
.	.	16dJJ	.	16fJJ	.	16ffJJ	.	.
=175	=175	=175	=175	=175	=175	=175	=175	=175
8r	.	8e')	.	8g')	.	8ee'L)	.	V7
(16cLL	.	8r	.	8r	.	(16ggL	.	.
16dJJ	.	.	.	.	.	16ffJJ	.	.
8e')	.	8r	.	8r	.	8ee'L)	.	.
8r	.	(16fLL	.	(16aLL	.	(16cccL	.	.
.	.	16gJJ	.	16b-JJ	.	16bb-JJ	.	.
=176	=176	=176	=176	=176	=176	=176	=176	=176
8r	.	8a')	.	8cc')	.	8aa'L)	.	I
(16fLL	.	8r	.	8r	.	(16cccL	.	.
16gJJ	.	.	.	.	.	16bb-'JJ	.	.
8a')	.	8r	.	8r	.	8aa'L)	.	.
8r	.	(16gLL	.	(16b-LL	.	(16fffL	.	.
.	.	16aJJ	.	16ccJJ	.	16eeeJJ	.	.
=177	=177	=177	=177	=177	=177	=177	=177	=177
8r	.	8b-'L)	.	8dd'L)	.	8ddd'L)	.	ii
(16GLL	.	(16dL	.	(16b-L	.	(16bb-L	.	.
16AJJ	.	16cJJ	.	16aJJ	.	16aaJJ	.	.
8B-'L)	.	8B-'L)	.	8g'L)	.	8gg'L)	.	ii6
8c'J	.	8g'J	.	8b-'J	.	(16cccL	.	V7
.	.	.	.	.	.	16eeJJ)	.	.
=178	=178	=178	=178	=178	=178	=178	=178	=178
!LO:TX:a:i:t=cresc. poco a poco	!	!LO:TX:a:i:t=cresc. poco a poco	!	!	!	!	!	!
12F'L	.	12A'L	.	8a	.	8ff'	.	I
12F'	.	12A'	.	.	.	.	.	.
.	.	.	.	8r	.	8r	.	.
12A'J	.	12c'J	.	.	.	.	.	.
!	!	!	!	!	!	!LO:TX:a:B:t=accel.	!	!
!	!	!	!	!LO:TX:a:i:t=cresc. poco a poco	!	!LO:TX:a:i:t=cresc. poco a poco	!	!
12F'L	.	12A'L	.	12a'L	.	12cc'L	.	.
12F'	.	12A'	.	12a	.	12cc'	.	.
12A'J	.	12cJ	.	12fJ	.	12a'J	.	.
=179	=179	=179	=179	=179	=179	=179	=179	=179
12F'L	.	12A'L	.	12aL	.	12cc'L	.	I
12F'	.	12A'	.	12a	.	12cc'	.	.
12A'J	.	12c'J	.	12fJ	.	12a'J	.	.
12F'L	.	12A'L	.	12ccL	.	12ff'L	.	.
12F'	.	12A'	.	12cc	.	12ff'	.	.
12A'J	.	12cJ	.	12aJ	.	12cc'J	.	.
=180	=180	=180	=180	=180	=180	=180	=180	=180
12B-L	.	12dL	.	12b-L	.	12ddL	.	IV
12B-	.	12d	.	12b-	.	12dd	.	.
12dJ	.	12fJ	.	12fJ	.	12b-J	.	.
12B-L	.	12dL	.	12b-L	.	12ddL	.	.
12B-	.	12d	.	12b-	.	12dd	.	.
12dJ	.	12fJ	.	12fJ	.	12b-J	.	.
=181	=181	=181	=181	=181	=181	=181	=181	=181
12GL	.	12B-L	.	12b-L	.	12ddL	.	ii
12G	.	12B-	.	12b-	.	12dd	.	.
12B-J	.	12dJ	.	12gJ	.	12b-J	.	.
12GL	.	12B-L	.	12b-L	.	12ddL	.	.
12G	.	12B-	.	12b-	.	12dd	.	.
12B-J	.	12dJ	.	12gJ	.	12b-J	.	.
=182	=182	=182	=182	=182	=182	=182	=182	=182
12EL	.	12GL	.	12b-L	.	12ccL	.	V65
12E	.	12G	.	12b-	.	12cc	.	.
12GJ	.	12cJ	.	12gJ	.	12b-J	.	.
12EL	.	12GL	.	12b-L	.	12ccL	.	.
12E	.	12G	.	12b-	.	12cc	.	.
12GJ	.	12cJ	.	12gJ	.	12b-J	.	.
=183	=183	=183	=183	=183	=183	=183	=183	=183
12CL	.	12gL	.	12b-L	.	12eeL	.	V7
12C	.	12g	.	12b-	.	12ee	.	.
12cJ	.	12b-J	.	12eJ	.	12gJ	.	.
12CL	.	12gL	.	12b-L	.	12eeL	.	.
12C	.	12g	.	12b-	.	12ee	.	.
12cJ	.	12b-J	.	12eJ	.	12gJ	.	.
=184	=184	=184	=184	=184	=184	=184	=184	=184
12FL	.	12cL	.	12aL	.	12ffL	.	I
12F	.	12c	.	12a	.	12ff	.	.
12cJ	.	12aJ	.	12fJ	.	12aJ	.	.
12FL	.	12cL	.	12ffL	.	12aaL	.	.
12F	.	12c	.	12ff	.	12aa	.	.
12cJ	.	12aJ	.	12aJ	.	12ffJ	.	.
=185	=185	=185	=185	=185	=185	=185	=185	=185
12CL	.	12cL	.	12ggL	.	12bb-L	.	V7
12C	.	12c	.	12gg	.	12bb-	.	.
12cJ	.	12gJ	.	12eeJ	.	12ggJ	.	.
12CL	.	12cL	.	12ggL	.	12eeeL	.	.
12C	.	12c	.	12gg	.	12eee	.	.
12cJ	.	12ccJ	.	12eeJ	.	12ggJ	.	.
=186	=186	=186	=186	=186	=186	=186	=186	=186
!	!	!	!	!	!	!LO:TX:a:B:t=Allegro	!	!
*MM120	*	*MM120	*	*MM120	*	*MM120	*	*
!	!	!	!	!	!	!LO:TX:a:t=[quarter]=120	!	!
8F	f	8f	f	8aa	f	8fff	f	I\\
8r	.	8r	.	8r	.	8r	.	.
16CLL	.	16cLL	.	16ccLL	.	16cccLL	.	.
16D	.	16d	.	16dd	.	16ddd	.	.
16C	.	16c	.	16cc	.	16ccc	.	.
16BB-JJ	.	16B-JJ	.	16b-JJ	.	16bb-JJ	.	.
=187	=187	=187	=187	=187	=187	=187	=187	=187
16AALL	.	16ALL	.	16aLL	.	16aaLL	.	.
16C	.	16c	.	16cc	.	16ccc	.	.
16D	.	16d	.	16dd	.	16ddd	.	.
16EJJ	.	16eJJ	.	16eeJJ	.	16eeeJJ	.	.
16FLL	sf	16fLL	sf	16ffLL	sf	16fffLL	sf	.
16G	.	16g	.	16gg	.	16ggg	.	.
16F	.	16f	.	16ff	.	16fff	.	.
16EJJ	.	16eJJ	.	16eeJJ	.	16eeeJJ	.	.
=188	=188	=188	=188	=188	=188	=188	=188	=188
16ELL	.	16eLL	.	16eeLL	.	16eeeLL	.	vi
16D	.	16d	.	16dd	.	16ddd	.	.
16C#	.	16c#	.	16cc#	.	16ccc#	.	.
16DJJ	.	16dJJ	.	16ddJJ	.	16dddJJ	.	.
16DLL	sf	16dLL	sf	16ddLL	sf	16dddLL	sf	.
16E	.	16e	.	16ee	.	16eee	.	.
16D	.	16d	.	16dd	.	16ddd	.	.
16CXJJ	.	16cXJJ	.	16ccXJJ	.	16cccXJJ	.	.
=189	=189	=189	=189	=189	=189	=189	=189	=189
16CLL	.	16cLL	.	16ccLL	.	16cccLL	.	V7
16BB-	.	16B-	.	16b-	.	16bb-	.	.
16AA	.	16A	.	16a	.	16aa	.	.
16BB-JJ	.	16B-JJ	.	16b-JJ	.	16bb-JJ	.	.
16BB-LL	sf	16B-LL	sf	16b-LL	sf	16bb-LL	sf	.
16C	.	16c	.	16cc	.	16ccc	.	.
16BB-	.	16B-	.	16b-	.	16bb-	.	.
16AAJJ	.	16AJJ	.	16aJJ	.	16aaJJ	.	.
=190	=190	=190	=190	=190	=190	=190	=190	=190
16AALL	.	16ALL	.	16aLL	.	16aaLL	.	ii
16GG	.	16G	.	16g	.	16gg	.	.
16FF#	.	16F#	.	16f#	.	16ff#	.	.
16GGJJ	.	16GJJ	.	16gJJ	.	16ggJJ	.	.
16BB-LL	sf	16B-LL	sf	16b-LL	sf	16bb-LL	sf	.
16C	.	16c	.	16cc	.	16ccc	.	.
16BB-	.	16B-	.	16b-	.	16bb-	.	.
16AAJJ	.	16AJJ	.	16aJJ	.	16aaJJ	.	.
=191	=191	=191	=191	=191	=191	=191	=191	=191
16AALL	.	16ALL	.	16aLL	.	16aaLL	.	.
16GG	.	16G	.	16g	.	16gg	.	.
16FF#	.	16F#	.	16f#	.	16ff#	.	.
16GGJJ	.	16GJJ	.	16gJJ	.	16ggJJ	.	.
!	!	!	!LO:DY:a	!	!	!	!	!
16CLL	sf	16cLL	sf sf	16ccLL	.	16cccLL	sf	V7
16D	.	16d	.	16dd	.	16ddd	.	.
16C	.	16c	.	16cc	.	16ccc	.	.
16BB-JJ	.	16B-JJ	.	16b-JJ	.	16bb-JJ	.	.
=192	=192	=192	=192	=192	=192	=192	=192	=192
16AALL	ff	16ALL	ff	16aLL	ff	16aaLL	ff	I
16BB-	.	16B-	.	16b-	.	16bb-	.	.
16C	.	16c	.	16cc	.	16ccc	.	.
16C#JJ	.	16c#JJ	.	16cc#JJ	.	16ccc#JJ	.	.
16DDLL	.	16DLL	.	16ddLL	.	16dddLL	.	.
16EE	.	16E	.	16ccX	.	16cccX	.	V6
16FFX	.	16FX	.	16b-	.	16bb-	.	.
16FF#JJ	.	16F#JJ	.	16aJJ	.	16aaJJ	.	#viio/ii
=193	=193	=193	=193	=193	=193	=193	=193	=193
16GGLL	.	16GLL	.	16gLL	.	16ggLL	.	ii
16AA	.	16A	.	16fX	.	16ffX	.	.
16BB-	.	16B-	.	16e	.	16ee	.	ii6
16BBJJ	.	16BJJ	.	16dJJ	.	16ddJJ	.	V6/V
8CL	.	8cL	.	16cLL	.	16ccLL	.	V7
.	.	.	.	16d	.	16b-	.	.
8CJ	.	8cJ	.	16c	.	16a	.	.
.	.	.	.	16B-JJ	.	16gJJ	.	.
=194	=194	=194	=194	=194	=194	=194	=194	=194
8F	.	8F	.	8A	.	8f	.	I
8r	.	8r	.	8r	.	8r	.	.
4r	.	4r	.	4r	.	4r	.	.
=195	=195	=195	=195	=195	=195	=195	=195	=195
8C	p	8G	p	8e	p	8cc	p	V
8r	.	8r	.	8r	.	8r	.	.
4r	.	4r	.	4r	.	4r	.	.
=196	=196	=196	=196	=196	=196	=196	=196	=196
8FF	.	8F 8A	.	8c 8f	.	8a	.	I\\
8r	.	8r	.	8r	.	8r	.	.
==	==	==	==	==	==	==	==	==
*-	*-	*-	*-	*-	*-	*-	*-	*-
!!!system-decoration: [(s1,s2,s3,s4)]
